X: 69
T: At the Lamb's High Feast
M: 4/4 % time signature
L: 1/4 % default length
%%staves S0 | {(S1V1 S1V2) | (S2V1 S2V2)}
V: S0 clef=treble 
%%MIDI beat 127 125 110 1
V: S1V1 clef=treble 
%%MIDI beat 127 125 110 1
V: S1V2 
%%MIDI beat 127 125 110 1
V: S2V1 clef=bass 
%%MIDI beat 127 125 110 1
V: S2V2 
%%MIDI beat 127 125 110 1
K: C % key signature
%
%%MIDI program 1 0 % Piano 1
%%MIDI program 2 1 % Piano 2
%%MIDI program 3 1 % Piano 2
%%MIDI program 4 1 % Piano 2
%%MIDI program 5 1 % Piano 2
%
% 1
[V: S0] [Q:1/4=110] C C | G c B/A//G//A/ A/ | G2 A A | B A G/A/G/ =F/ | E2
w: 1.~At the Lamb's high feast * * * we sing, Praise to our vic- tor- * * ious King, 
w: 2.~Praise we him, whose love * * * di- vine Gives his sac- red blood * * for wine, 
w: 3.~Where the Pas- chal blood * * * is poured, Death's dark an- gel sheathes * * his sword; 
w: 4.~Praise we Christ, whose blood * * * was shed, Pas- chal Vic- tim, Pas- * * chal Bread; 
w: 5.~Might- y Vic- tim from * * * the sky, Hell's fierce pow'rs be- neath * * thee lie; 
[V: S1V1] [Q:1/4=110] C2 | G c B/A//G//A/ A/ | G2 A A | B A G/A/G/ =F/ | E2
[V: S1V2]  C2 | E C F3/2 E/ | E2 F C | E F E2 | C2
[V: S2V1]  E,2 | G, G, D2 | C, D,/E,/ F,2 | A, F, G,3/2 G,/ | C, D,/E,/
[V: S2V2]  C,2 | C, E, D,2 | C,2 C,2 | B,, C, E,3/2 E,/ | G,,2
% 5
[V: S0]  E/ D/ E/ F/ | G/ G/ C E/ D/ E/ C/ | B,/ C/ D/ !sintro!F/ E D | C2 !eintro!|]
w: Who has washed us in the tide Flow- ing from his pierc- èd side; A- lle- lu- ia! 
w: Gives his bo- dy for the feast, Christ the Vic- tim, Christ the Priest. A- lle- lu- ia! 
w: Is- rael's hosts tri- um- phant go Through the wave that drowns the foe. A- lle- lu- ia! 
w: With sin- cer- i- ty and love Eat we Ma- nna from a- bove. A- lle- lu- ia! 
w: Thou hast con- quered in the fight, Thou hast brought us life and light; A- lle- lu- ia! 
[V: S1V1]  E/ D/ E/ F/ | G/ G/ C E/ D/ E/ C/ | B,/ C/ D/ F/ E D | C2 |]
[V: S1V2]  C2 | E/ E/ C C/ B,/ C/ C/ | G,/ G,/ B,/ C/ C3/2 A,/ | C2 |]
[V: S2V1]  E, G, | G,/ G,/ E, G,/ G,/ G, | D,/ E,/ G,/ A,/ G, F, | G,2 |]
[V: S2V2]  C, E, | E,/ G,/ C, E,/ D,/ E, | B,,/ C,/ D,/ F,/ C,3/2 D,/ | C,2 |]
% 10
W: 6.Now no more can death appall,
W: Now no more the grave enthrall;
W: Thou hast opened Paradise,
W: And in thee thy saints shall rise.
W: 
W: 7.Paschal triumph, Easter joy,
W: This alone can sin destroy;
W: From sin's death do thou set free
W: Souls reborn, O Lord, in thee.
W: 
W: 8.Hymns of glory and of praise,
W: Father, to thee we raise;
W: Risen Lord, all praise to thee,
W: Ever with the Spirit be.

